papirus/22x22/apps/baka-mplayer.svg

<?xml version="1.0" encoding="UTF-8" standalone="no"?>
<svg
   xmlns:dc="http://purl.org/dc/elements/1.1/"
   xmlns:cc="http://creativecommons.org/ns#"
   xmlns:rdf="http://www.w3.org/1999/02/22-rdf-syntax-ns#"
   xmlns:svg="http://www.w3.org/2000/svg"
   xmlns="http://www.w3.org/2000/svg"
   xmlns:sodipodi="http://sodipodi.sourceforge.net/DTD/sodipodi-0.dtd"
   xmlns:inkscape="http://www.inkscape.org/namespaces/inkscape"
   id="svg2"
   version="1.1"
   viewBox="0 0 22 22"
   inkscape:version="0.91 r13725"
   sodipodi:docname="baka-mplayer.svg"
   width="22"
   height="22">
  <defs
     id="defs17" />
  <sodipodi:namedview
     pagecolor="#ffffff"
     bordercolor="#666666"
     borderopacity="1"
     objecttolerance="10"
     gridtolerance="10"
     guidetolerance="10"
     inkscape:pageopacity="0"
     inkscape:pageshadow="2"
     inkscape:window-width="1600"
     inkscape:window-height="849"
     id="namedview15"
     showgrid="false"
     inkscape:zoom="16.15"
     inkscape:cx="15.609907"
     inkscape:cy="15.95171"
     inkscape:window-x="0"
     inkscape:window-y="0"
     inkscape:window-maximized="1"
     inkscape:current-layer="svg2" />
  <metadata
     id="metadata41">
    <rdf:RDF>
      <cc:Work
         rdf:about="">
        <dc:format>image/svg+xml</dc:format>
        <dc:type
           rdf:resource="http://purl.org/dc/dcmitype/StillImage" />
        <dc:title />
      </cc:Work>
    </rdf:RDF>
  </metadata>
  <path
     style="fill:#4d4d4d;fill-rule:evenodd"
     inkscape:connector-curvature="0"
     id="path37"
     d="M 1.8000432,1.1579927 C 1.0000469,1.9739889 1.0000469,5.8795706 1.0000469,8.351959 1.0000469,17.327917 6.2000226,20.9999 11,20.9999 c 4.799978,0 9.999953,-3.672033 9.999953,-12.647941 0,-2.4480385 0,-6.3779701 -0.799996,-7.1939663 -0.799996,-0.8161462 -6.099972,1.7165419 -7.699964,3.3484843 l -2.9999859,0 C 7.9000146,2.8745346 2.6000394,0.3418465 1.8000432,1.1578927 Z" />
  <path
     style="opacity:0.2;fill:#000000;fill-opacity:1"
     d="m 6.5000001,6.4999999 a 3.4999836,3.9999813 0 0 0 -3.5,4.0000001 3.4999836,3.9999813 0 0 0 3.5,4 A 3.4999836,3.9999813 0 0 0 10,10.5 3.4999836,3.9999813 0 0 0 6.5000001,6.4999999 Z m 8.9999999,0 A 3.4999836,3.9999813 0 0 0 12,10.5 a 3.4999836,3.9999813 0 0 0 3.5,4 3.4999836,3.9999813 0 0 0 3.5,-4 3.4999836,3.9999813 0 0 0 -3.5,-4.0000001 z m -8.9999999,1.5 a 1.9999906,2.4999883 0 0 1 2,2.5000001 1.9999906,2.4999883 0 0 1 -2,2.5 1.9999906,2.4999883 0 0 1 -2,-2.5 1.9999906,2.4999883 0 0 1 2,-2.5000001 z m 8.9999999,0 a 1.9999906,2.4999883 0 0 1 2,2.5000001 1.9999906,2.4999883 0 0 1 -2,2.5 1.9999906,2.4999883 0 0 1 -2,-2.5 1.9999906,2.4999883 0 0 1 2,-2.5000001 z M 11,15.5 c -0.999996,0 -1.9999999,0.293059 -1.9999999,0.878906 C 9.0000001,17.5504 9.8950051,18.5 11,18.5 c 1.104995,0 2,-0.9496 2,-2.121094 C 13,15.793059 11.999996,15.5 11,15.5 Z"
     id="path4175"
     inkscape:connector-curvature="0" />
  <path
     style="fill:#ffffff"
     d="m 12.999991,15.879024 c 0,1.171494 -0.894996,2.12099 -1.999991,2.12099 -1.1049949,0 -1.9999909,-0.949496 -1.9999909,-2.12099 0,-1.171695 3.9999819,-1.171695 3.9999819,0 z"
     id="path31"
     inkscape:connector-curvature="0" />
  <path
     d="M 6.4999837,6.0000377 A 3.4999836,3.9999813 0 0 0 3.0000001,10.000019 3.4999836,3.9999813 0 0 0 6.4999837,14 3.4999836,3.9999813 0 0 0 9.9999671,10.000019 3.4999836,3.9999813 0 0 0 6.4999837,6.0000377 Z m 0,1.4999929 A 1.9999906,2.4999883 0 0 1 8.499974,10.000019 1.9999906,2.4999883 0 0 1 6.4999837,12.500007 1.9999906,2.4999883 0 0 1 4.4999931,10.000019 1.9999906,2.4999883 0 0 1 6.4999837,7.5000306 Z"
     id="path4218"
     inkscape:connector-curvature="0"
     style="fill:#ffffff;fill-rule:evenodd" />
  <path
     d="M 15.499983,6.0000377 A 3.4999836,3.9999813 0 0 0 12,10.000019 3.4999836,3.9999813 0 0 0 15.499983,14 3.4999836,3.9999813 0 0 0 18.999967,10.000019 3.4999836,3.9999813 0 0 0 15.499983,6.0000377 Z m 0,1.4999929 a 1.9999906,2.4999883 0 0 1 1.999991,2.4999884 1.9999906,2.4999883 0 0 1 -1.999991,2.499988 1.9999906,2.4999883 0 0 1 -1.99999,-2.499988 1.9999906,2.4999883 0 0 1 1.99999,-2.4999884 z"
     id="path4221"
     inkscape:connector-curvature="0"
     style="fill:#ffffff;fill-rule:evenodd" />
  <path
     style="opacity:0.1;fill:#ffffff;fill-rule:evenodd"
     inkscape:connector-curvature="0"
     id="path4223"
     d="m 2.2949408,1.0010934 c -0.2245989,0.00565 -0.3950981,0.0552 -0.4950976,0.1571993 -0.7999963,0.8159962 -0.7997963,4.7207779 -0.7997963,7.1934663 0,0.044 0.0017,0.0855 0.00195,0.1289994 0.00155,-2.4754884 0.03405,-6.0429717 0.7978463,-6.8224681 0.7999962,-0.8157962 6.0999714,1.716792 7.6999639,3.3489844 l 2.9999859,0 c 1.599992,-1.6321924 6.899968,-4.1647806 7.699964,-3.3487844 0.763996,0.7790464 0.796496,4.3667796 0.797996,6.8234681 5e-4,-0.044 0.002,-0.086 0.002,-0.1299994 0,-2.4479885 0,-6.3774702 -0.799996,-7.1934663 -0.799996,-0.8157962 -6.099972,1.7167919 -7.699964,3.3489843 l -2.9999859,0 C 8.0998137,3.0792837 3.8668335,0.9618936 2.2948408,1.0014934 Z" />
  <path
     style="opacity:0.3;fill-rule:evenodd"
     inkscape:connector-curvature="0"
     id="path4228"
     d="m 1.0019969,7.9805607 c -5e-5,0.1169995 -0.00195,0.2594988 -0.00195,0.3709983 C 1.0000469,17.327517 6.2000226,21 11,21 c 4.799978,0 9.999953,-3.672483 9.999953,-12.648441 0,-0.1109995 -0.002,-0.2534988 -0.002,-0.3699983 C 20.947453,16.861519 15.776478,20.500002 11,20.500002 c -4.7764775,0 -9.9474533,-3.638483 -9.9979531,-12.5194413 z" />
</svg>

<?xml version="1.0" encoding="UTF-8" standalone="no"?>
<svg id="svg2" xmlns:rdf="http://www.w3.org/1999/02/22-rdf-syntax-ns#" xmlns="http://www.w3.org/2000/svg" height="22" width="22" version="1.1" xmlns:cc="http://creativecommons.org/ns#" viewBox="0 0 22 22" xmlns:dc="http://purl.org/dc/elements/1.1/">
 <metadata id="metadata41">
  <rdf:RDF>
   <cc:Work rdf:about="">
    <dc:format>image/svg+xml</dc:format>
    <dc:type rdf:resource="http://purl.org/dc/dcmitype/StillImage"/>
    <dc:title/>
   </cc:Work>
  </rdf:RDF>
 </metadata>
 <path id="path37" fill-rule="evenodd" fill="#4d4d4d" d="m1.8 1.158c-0.8 0.816-0.8 4.7216-0.8 7.194 0 8.976 5.2 12.648 10 12.648s10-3.672 10-12.648c0-2.448 0-6.378-0.8-7.194-0.8-0.81615-6.1 1.7165-7.7 3.3485h-3c-1.6-1.6315-6.9-4.1642-7.7-3.3481z"/>
 <path id="path4175" opacity=".2" d="m6.5 6.5a3.5 4 0 0 0 -3.5 4 3.5 4 0 0 0 3.5 4 3.5 4 0 0 0 3.5 -4 3.5 4 0 0 0 -3.5 -4zm9 0a3.5 4 0 0 0 -3.5 4 3.5 4 0 0 0 3.5 4 3.5 4 0 0 0 3.5 -4 3.5 4 0 0 0 -3.5 -4zm-9 1.5a2 2.5 0 0 1 2 2.5 2 2.5 0 0 1 -2 2.5 2 2.5 0 0 1 -2 -2.5 2 2.5 0 0 1 2 -2.5zm9 0a2 2.5 0 0 1 2 2.5 2 2.5 0 0 1 -2 2.5 2 2.5 0 0 1 -2 -2.5 2 2.5 0 0 1 2 -2.5zm-4.5 7.5c-1 0-2 0.29306-2 0.87891 0 1.171 0.895 2.121 2 2.121s2-0.9496 2-2.1211c0-0.586-1-0.879-2-0.879z"/>
 <path id="path31" fill="#fff" d="m13 15.879c0 1.1715-0.895 2.121-2 2.121s-2-0.9495-2-2.121c0-1.1717 4-1.1717 4 0z"/>
 <path id="path4218" fill-rule="evenodd" fill="#fff" d="m6.5 6a3.5 4 0 0 0 -3.5 4 3.5 4 0 0 0 3.5 4 3.5 4 0 0 0 3.5 -4 3.5 4 0 0 0 -3.5 -4zm0 1.5a2 2.5 0 0 1 2 2.5 2 2.5 0 0 1 -2 2.5 2 2.5 0 0 1 -2 -2.5 2 2.5 0 0 1 2 -2.5z"/>
 <path id="path4221" fill-rule="evenodd" fill="#fff" d="m15.5 6a3.5 4 0 0 0 -3.5 4 3.5 4 0 0 0 3.5 4 3.5 4 0 0 0 3.5 -4 3.5 4 0 0 0 -3.5 -4zm0 1.5a2 2.5 0 0 1 2 2.5 2 2.5 0 0 1 -2 2.5 2 2.5 0 0 1 -2 -2.5 2 2.5 0 0 1 2 -2.5z"/>
 <path id="path4223" opacity=".1" d="m2.2949 1.0011c-0.2246 0.00565-0.3951 0.0552-0.4951 0.1572-0.8 0.816-0.7998 4.7208-0.7998 7.1935 0 0.044 0.0017 0.0855 0.00195 0.129 0.00155-2.4755 0.03405-6.043 0.79785-6.8225 0.8-0.8158 6.1 1.7168 7.7 3.349h3c1.6-1.6322 6.9-4.1648 7.7-3.3488 0.764 0.77905 0.7965 4.3668 0.798 6.8235 0.0005-0.044 0.002-0.086 0.002-0.13 0-2.448 0-6.3775-0.8-7.1935-0.8-0.8158-6.1 1.7168-7.7 3.349h-3c-1.4002-1.4282-5.6332-3.5456-7.2052-3.506z" fill-rule="evenodd" fill="#fff"/>
 <path id="path4228" opacity=".2" fill-rule="evenodd" d="m1.002 8.4806c-0.00005 0.117-0.00195 0.2595-0.00195 0.371 0 8.9764 5.2 12.648 10 12.648s10-3.6725 10-12.648c0-0.111-0.002-0.2535-0.002-0.37-0.051 8.88-5.222 12.518-9.998 12.518-4.7765 0-9.9475-3.6385-9.998-12.519z"/>
</svg>
